Adwaita++-Dark/actions/16/iso-image-new.svg

<svg fill="none" height="16" viewBox="0 0 16 16" width="16" xmlns="http://www.w3.org/2000/svg" xmlns:xlink="http://www.w3.org/1999/xlink">
  <clipPath id="clip0">
    <path d="m0 0h16v16h-16z"/>
  </clipPath>
  <g clip-path="url(#clip0)" fill="#e6ddff">
    <path d="m12 10v1.9968h-2v1.9967h2v1.9967h2v-1.9967h2v-1.9967h-2v-1.9968z"/>
    <g clip-rule="evenodd" fill-rule="evenodd">
      <path d="m13.5557 8.58124c.1176-1.12434-.1087-2.25792-.649-3.25093s-1.3691-1.79872-2.3771-2.31067c-1.00787-.51194-2.1474-.70602-3.26796-.55659-1.12056.14942-2.16941.63533-3.00796 1.3935-.83854.75818-1.42731 1.75293-1.68851 2.85282s-.18252 2.25315.22562 3.30743c.40815 1.0542 1.12656 1.9598 2.0603 2.597.93373.6373 2.03886.9763 3.16933.9721l.00882 2.4141c-.00092 0-.00184 0-.00276 0-.67754.0022-1.3487-.0816-1.99815-.2468-.90153-.2292-1.76122-.6153-2.53807-1.1455-1.33727-.9126-2.36614-2.2096-2.950669-3.7194-.5845285-1.50982-.6972-3.16147-.323126-4.73668.374074-1.57522 1.217285-2.99987 2.418215-4.0857 1.20093-1.08582 2.70305-1.781712 4.30787-1.9957174 1.60482-.2140056 3.23685.0639494 4.68035.7971354 1.4434.733182 2.6305 1.887092 3.4043 3.309242.4495.82617.7472 1.72028.8848 2.64027.0991.66273.1151 1.3389.0449 2.01276-.0001.00094-.0002.00188-.0003.00282z"/>
      <path d="m8 11.5c1.933 0 3.5-1.567 3.5-3.5s-1.567-3.5-3.5-3.5-3.5 1.567-3.5 3.5 1.567 3.5 3.5 3.5zm0-1.76877c-.95613 0-1.73123-.7751-1.73123-1.73123s.7751-1.73123 1.73123-1.73123 1.73123.7751 1.73123 1.73123-.7751 1.73123-1.73123 1.73123z"/>
    </g>
  </g>
</svg>

<svg xmlns="http://www.w3.org/2000/svg" fill="none" width="16" height="16" viewBox="0 0 16 16">
 <g clip-path="url(#clip0)">
  <path fill="#E6DDFF" d="M12 10V11.9968H10V13.9935H12V15.9902H14V13.9935H16V11.9968H14V10H12Z"/>
  <path fill="#E6DDFF" fill-rule="evenodd" d="M13.5557 8.58124C13.6733 7.4569 13.447 6.32332 12.9067 5.33031C12.3664 4.3373 11.5376 3.53159 10.5296 3.01964C9.52173 2.5077 8.3822 2.31362 7.26164 2.46305C6.14108 2.61247 5.09223 3.09838 4.25368 3.85655C3.41514 4.61473 2.82637 5.60948 2.56517 6.70937C2.30397 7.80926 2.38265 8.96252 2.79079 10.0168C3.19894 11.071 3.91735 11.9766 4.85109 12.6138C5.78482 13.2511 6.88995 13.5901 8.02042 13.5859L8.02924 16C8.02832 16 8.0274 16 8.02648 16C7.34894 16.0022 6.67778 15.9184 6.02833 15.7532C5.1268 15.524 4.26711 15.1379 3.49026 14.6077C2.15299 13.6951 1.12412 12.3981 0.539591 10.8883C-0.0449375 9.37848 -0.157609 7.72683 0.216465 6.15162C0.590539 4.5764 1.43375 3.15175 2.63468 2.06592C3.83561 0.9801 5.33773 0.284208 6.94255 0.0702026C8.54737 -0.143803 10.1794 0.134152 11.6229 0.867338C13.0663 1.60052 14.2534 2.75443 15.0272 4.17658C15.4767 5.00275 15.7744 5.89686 15.912 6.81685C16.0111 7.47958 16.0271 8.15575 15.9569 8.82961C15.9568 8.83055 15.9567 8.83149 15.9566 8.83243L13.5557 8.58124Z" clip-rule="evenodd"/>
  <path fill="#E6DDFF" fill-rule="evenodd" d="M8 11.5C9.933 11.5 11.5 9.933 11.5 8C11.5 6.067 9.933 4.5 8 4.5C6.067 4.5 4.5 6.067 4.5 8C4.5 9.933 6.067 11.5 8 11.5ZM8 9.73123C7.04387 9.73123 6.26877 8.95613 6.26877 8C6.26877 7.04387 7.04387 6.26877 8 6.26877C8.95613 6.26877 9.73123 7.04387 9.73123 8C9.73123 8.95613 8.95613 9.73123 8 9.73123Z" clip-rule="evenodd"/>
 </g>
 <defs>
  <clipPath id="clip0">
   <rect fill="#fff" width="16" height="16"/>
  </clipPath>
 </defs>
</svg>
